!!!ONB: MCCC : IJB0064_01 : Extracted Monophonic Melody
!!!COM: Bach, Johann Sebastian
!!!OPR: Cello Suite No.2
!!!OMV: 1
!!!SCT: BWV 1008
!!!ODT: 1717///
**kern
*thru
*staff1
*IP1
*clefF4
*k[b-]
*d:
*M3/4
=1-
8D
8F
[4A
16A]
16F
16E
16D
=2
16C#
16E
16G
16A
[4B-
16B-]
16A
16G
16F
=3
16E
16G
16B-
16c#
8.e
16B-
16A
16G
16F
16E
=4
16F
16G
16A
16F
8D
8C
8BB-
8AA
=5
16BB-
16D
16F
16A
8.d
16c
16B-
16A
16G
16F
=6
16E
16G
16B-
16d
16c
16A
16B-
16G
16F
16E
16G
16BB-
=7
16AA
16C
16E
16G
8.c
16B-
16A
16G
16F
16E
=8
16D
16F
16A
16c
16B-
16G
16A
16F
16E
16F
16A
16F
=9
16GG
16BB-
16D
16F
8.B-
16A
16G
16F
16E
16G
=10
16AA
16C
16E
16G
16c
16A
16E
16G
16F
16A
16D
16E-
=11
16D
16AA
16BB-
16D
16G
16B-
16A
16c
16B-
16G
16d
16F
=12
16E
16BB
16C
16E
16G
16D
16E
16C
16BB-
16GG
16E
16BB-
=13
8FF
8AA
[4C
16C]
16BB-
16AA
16GG
=14
16FF#
16AA
16BB-
16C
16DD
16C
16BB-
16AA
16F#
16E-
16D
16C
=15
16BB-
16AA
16GG
16BB-
[4D
16D]
16C
16BB-
16AA
=16
16GG#
16BB
16C
16D
16EE
16D
16C
16BB
16G#
16F
16E
16D
=17
16C
16BB
16AA
16C
16F
16E
16F
16G#
16A
16F
16D
16C
=18
16BB
16D
16G#
16B
8.d
16c
16B
16A
16G#
16A
=19
16C
16E
16A
16c
8.e
16c
16B
16A
16G#
16A
=20
16D
16F
16A
16d
8.f
16e
16d
16c
16B
16d
=21
16E
16d
16c
16B
16A
16c
16B
16A
16D
16B
16A
16G#
=22
16C
16A
16G
16F
16C#
16G
16F
16E
16D
16F
16E
16D
=23
16GG#
16D
16E
16F
16B
16F
16E
16D
16GG#
16D
16C
16BB
=24
16AA
16BB
16C
16E
16A
16B
16c
16A
16E
16C
16AA
16GG
=25
16FF#
16AA
16C
16D
8.E-
16D
16C
16BB-
16C
16A
=26
16BB-
16AA
16BB-
16D
16GG
16E-
16F
16G
16AA
16G
16F
16E-
=27
16D
16C
16D
16F
16BB-
16G
16A
16B-
16C#
16B-
16A
16G
=28
16F
16E
16F
16A
16D
16B-
16c
16d
16E
16d
16c
16B-
=29
16A
16G
16A
16c
16F
16d
16e
16f
16G
16f
16e
16d
=30
16c#
16G
16F
16E
16AA
16E
16F
16G
16c#
16B-
16A
16G
=31
16F
16G
16A
16c#
16d
16A
16G
16F
16A
16F
16E
16D
=32
16G#
16D
16E
16F
16AA
16F
16E
16D
16G#
16F
16E
16D
=33
16C#
16BB
16C#
16E
16A
16E
16C#
16E
16AA
16G
16F
16E
=34
16F
16E
16F
16A
16d
16A
16F
16A
16D
16c
16B-
16A
=35
16G
16F
16G
16c#
16e
16c#
16G
16c#
16AA
16G
16F
16E
=36
16D
16A
16d
16e
16f
16d
16A
16F
16D
16c
16B-
16A
=37
16G
16A
16B-
16D
16E-
16F
16G
16A
16B-
16G
16e-
16G
=38
16F
16G
16A
16C#
16D
16E
16F
16G
16A
16F
16d
16F
=39
16E
16F
16G
16BB-
16AA
16BB
16C#
16D
16E
16BB-
16G
16BB-
=40
8CC#
8AA
[4G
16G]
16B-
16A
16G
=41
16F
16E
16D
16E
16F
16D
16A
16F
16d
16A
16F
16D
=42
8GG#
8F
[4d
16d]
16f
16e
16d
=43
16c#
16B
16A
16B
16c#
16A
16d
16A
16e
16A
16f
16A
=44
16g
16e
16c#
16e
16A
16c#
16e
16f
16g
16f
16g
16e
=45
16f
16d
16c#
16d
16A
16c#
16d
16e
16f
16e
16f
16d
=46
16e
16c#
16B
16c#
16A
16B
16c#
16d
16e
16d
16e
16c#
=47
16d
16B
16A
16B
16F
16G#
16B
16c#
16d
16c#
16d
16B
=48
4c#
4r
4r
=49
16B-
16G
16F#
16G
16E-
16G
16D
16G
16E-
16G
16B-
16D
=50
16C#
16E
16G
16A
8.B-
16A
16G
16F#
16G
16e
=51
16F
16d
16B-
16G
16A
16F
16E
16G
16F
16D
16C#
16E
=52
16D
16BB-
16AA
16GG
16FF#
16AA
16C
16E-
16D
16C
16BB-
16AA
=53
16BB-
16GG
16FF#
16GG
16EE-
16GG
16DD
16GG
16EE-
16GG
16BB-
16DD
=54
8.G
16F
16E
16D
16C#
16BB
16AA
16GG
16FF
16EE
=55
16DD
16AA
16D
16E
16F
16E
16D
16C
16BB-
16AA
16GG
16FF
=56
16EE
16AA
16C#
16E
16G
16F
16E
16D
16C#
16BB
16AA
16GG
=57
16FF
16AA
16D
16F
16A
16D
16F
16A
16d
16B-
16c
16A
=58
16GG
16D
16G
16A
16B-
16G
16F#
16G
16e-
16G
16d
16G
=59
4c#
2c#
=60
2.d
=61
2.d
=62
2.c#
=63
2.d
==
*-
